teeny/solid/pool.svg

<svg width="15" height="15" viewBox="0 0 15 15" fill="none" xmlns="http://www.w3.org/2000/svg">
<path fill-rule="evenodd" clip-rule="evenodd" d="M5.63639 1C4.14922 1 3 2.20269 3 3.72724V4H9V3.63639C9 1.56904 10.6333 0 12.6818 0V1C11.1667 1 10 2.14011 10 3.63639V10H9V9H3V12H2V3.72724C2 1.68816 3.55993 0 5.63639 0V1ZM3 8H9V5H3V8Z" fill="black"/>
<path d="M7.43931 13.4416C6.54499 13.9461 5.56317 14.5 3.95454 14.5C2.47163 14.5 1.34063 13.7381 0.625824 12.9317L1.37417 12.2683C1.95937 12.9286 2.83745 13.5 3.95454 13.5C5.29393 13.5 6.0834 13.0584 6.95888 12.5645L6.96977 12.5584C7.8641 12.0539 8.84591 11.5 10.4545 11.5C11.9851 11.5 13.3377 12.3202 14.3064 13.0716L13.6936 13.8618C12.7714 13.1465 11.6421 12.5 10.4545 12.5C9.11516 12.5 8.32568 12.9416 7.4502 13.4355L7.43931 13.4416Z" fill="black"/>
</svg>

<svg viewBox="0 0 15 15" xmlns="http://www.w3.org/2000/svg"><path fill-rule="evenodd" d="M5.63 1C4.14 1 2.99 2.2 2.99 3.72v.27h6v-.37c0-2.07 1.63-3.64 3.68-3.64v1c-1.52 0-2.69 1.14-2.69 2.63v6.36h-1v-1h-6v3h-1V3.69c0-2.04 1.55-3.73 3.63-3.73v1ZM2.99 8h6V5h-6v3Z"/><path d="M7.43 13.44c-.9.5-1.88 1.05-3.49 1.05 -1.49 0-2.62-.77-3.33-1.57l.74-.67c.58.66 1.46 1.23 2.58 1.23 1.33 0 2.12-.45 3-.94l.01-.01c.89-.51 1.87-1.06 3.48-1.06 1.53 0 2.88.82 3.85 1.57l-.62.79c-.93-.72-2.06-1.37-3.24-1.37 -1.34 0-2.13.44-3.01.93l-.02 0Z"/></svg>
